X:1
T:Force sera si de brief
T:Force sera si de brief
T:Thomas Crecquillon
C:Thomas Crecquillon
%%score [ 1 2 3 4 ]
L:1/8
Q:1/4=90
M:2/2
K:F
V:1 treble nm="Superius" snm="S"
V:2 treble nm="Altus" snm="A"
V:3 treble-8 nm="Tenor" snm="T"
V:4 bass nm="Bass" snm="B"
V:1
 z4 z2 F2 | B2 d2 c3 c | d2 f4 e2 | d2 c4 B2 | c4 z4 | z4 z2 F2 | B2 d2 c3 c | d2 f4 e2 | %8
w: For-|cé se- ra si|de brief n'ay|_ _ se-|cours,|for-|cé se- ra si|de brief n'ay|
 d2 c2 BA GF | G3 G A2 c2- | c2 B2 c2 c2 | d2 f2 e2 d2- | d2 c4 B2 | c2 c4 c2 | B4 A2 c2 | %15
w: _ _ _ _ _ _|* se- cours, for-|* cé se- ra|si de brief n'ay|_ _ se-|cours, de m'es-|lon- gir de|
 d2 e2 f2 e2 | d4 c2 c2 | dd e2 f3 e | d2 c2 B2 A2- | A2 G2 A4 | F4 B4- | B4 G4 | F8 | F4 F4 | %24
w: ce que mon cueur|ay- me, de|m'es- lon- gir de ce|que mon cueur ay-|* * me,|pas sans|_ re-|gretz,|car grant|
 G2 A2 B2 c2 | dc de f2 e2 | d3 c B2 A2 | G2 F2 B4 | A4 z4 | z8 | z4 c4 | d2 e2 f3 e | dc BA G3 A | %33
w: sou- cy et pai-||||ne,||m'ont|faict souf- frir et|seuf- * * * * fre|
 B2 c3 A d2- | d2 c2 d4 | z4 z2 c2 | d2 e2 f3 e | dc BA G2 z2 | c4 d2 e2 | f3 e dc BA | G2 G2 B4 | %41
w: tous _ _ _|_ les jours,|m'ont|faict souf- frir, _|_ _ _ _ _|m'ont faict souf-|frir, _ _ _ _ _|_ et seuf-|
 A2 G4 F2- | F2 E2 F4- | F8 |] %44
w: fre tous _|_ les jours.|_|
V:2
 C4 F2 A2 | G3 G AB cA | BA GF G4 | F2 E2 G4 | C4 F2 A2 | G4 F2 A2 | G2 B4 A2- | A2 GF A2 G2 | %8
w: For- cé se-|ra si de _ _ _|brief _ _ _ _|n'ay se- cours,|for- cé se-|ra si de|brief n'ay _|_ _ _ _ _|
 F2 A2 G2 F2- | F2 E2 F3 F | G2 B2 A2 G2- | G2 F2 G4 | A2 F2 G4 | E2 G4 A2 | G4 E2 E2 | F2 G2 A4- | %16
w: |* se- cours, for-|cé se- ra si|_ de biref|n'ay _ se-|cours, de m'es-|lon- gir de|ce que j'ay-|
 A2 A2 A4 | G4 A4 | B2 A2 G2 F2- | F2 E2 F4 | D8 | B,6 C2 | D8 | C4 D4 | z2 F2 G2 A2 | F3 G A4 | %26
w: * me, de-|ce que|mon cueur ay- *|* * me,|pas|sans re-||* gretz,|pas sans re-|gretz, _ _|
 D6 D2 | E2 F4 E2 | F4 z4 | z8 | z4 z2 F2- | F2 G2 A2 B2- | BA GF E4 | F2 G2 A4 | B2 A2 G2 F2 | %35
w: m'ont faict|souf- * *|frir,||m'ont|_ faict souf- frir,|_ _ _ _ _|* et seuf-|fre tous _ _|
 G3 F EC F2- | F2 E2 D2 z2 | D2 G3 FED | CA, A4 G2 | F2 F2 G4- |"^b" G2 E2 F4- | F2 D2 C2 B,2 | %42
w: _ _ _ _ _|* les jours,|me'ont- faict _ _ _|_ _ _ souf-|frir et seuf-|* fre tous|_ _ _ _|
 C4 A,4- | A,8 |] %44
w: les jours.|_|
V:3
 z8 | z4 F4 | B2 d2 c4 | z2 c2 d4 | f2 e2 dc f2- | f2 e2 f3 e | dc BA G2 c2- | c2 B2 c4 | %8
w: |For-|cé se- ra|si de|brief n'ay _ _ _|_ _ _ _||* se- cours,|
 z2 F2 B2 d2 | c4 z2 c2 | d4 f2 e2 | d2 c4 B2 | c4 d4 | c2 e4 f2 | d4 c3 B | A2 G2 d2 e2 | %16
w: for- cé se-|ra si|de brief n'ay|_ _ _|* se-|cours, de m'es-|lon- gir de|ce que mon cueur|
 f4 e2 f2- | f2 e2 d2 c2 | B2 c2 d2 c2 | B4 A2 F2 | B8 | G3 A B2 G2 | A2 B2 F2 B2- | B2 A2 B3 A | %24
w: ay- me, de|_ m'es- lon- gir|de ce que mon|cueur ay- me,|pas|sans _ _ re-|gretz, pas ssans re-|* * gretz, _|
 G2 c2 d2 f2- | fe d4 c2 | B3 A G2 A2 | B2 d4 cB | c2 c2 d2 e2 | f3 e dc BA | G2 c3 BAG | %31
w: _ car grant sou-|* * cy et|pai- * * *||ne, m'ont faict souf-|frir, _ _ _ _ _|_ _ _ _ _|
 F2 c2 F2 z2 | z4 c4 | d2 e2 f4 | e4 d3 c | BA G2 c2 A2 | BF G2 F2 A2 | B4 c4 | A6 B2 | %39
w: |m'ont|faict souf- frir|et seuf- *|* * fre tous- *|* * les jours, m'ont|faict souf-|frir et|
 c2 d2 G3 A | B2 c2 d4 | c2 B2 A2 GF | G4 F4- | F8 |] %44
w: seuf- fre tous _|_ _ _||les jours.|_|
V:4
 z8 | z8 | z4 C,4 | F,2 A,2 G,3 G, | A,2 C2 B,2 A,2 | B,2 C2 D2 D,2 | G,3 F, E,2 F,2 | D,4 C,4 | %8
w: ||For-|cé se- ra si|de brief n'ay _|_ _ _ _||se- cours,|
"^-natural" z8 | C,4 F,2 A,2 | G,3 G, A,2 C2 | B,2 A,2 G,3 B, | A,4 G,4 | z2 C4 F,2 | G,4 A,3 G, | %15
w: |for- cé se-|ra si de brief|n'ay _ _ _|se- cours,|de m'es-|lon- gir de|
 F,2 E,2 D,2 C,2 | D,E, F,G, A,2 A,2 | B,2 C2 F,2 F,2 | G,2 A,2 B,2 F,2 | G,4 F,4 | z4 B,,4 | %21
w: ce que mon cueur|ay- * * * me, de|m'es- lon- gir de|ce que mon cueur|ay- me,|pas|
"^b""^b" E,6 E,2 | D,2 B,,2 B,,C, D,E, | F,4 B,,2 B,2 | B,2 A,2 G,2 F,2 | B,4 A,4 | %26
w: sans re-|gretz, pas sans _ _ _|re- gretz, car|grant sou- cy et|pai- ne,|
 z2 G,2 G,2 F,2 | E,2 D,2 G,4 | F,2 F,4 G,2 | A,2 B,3 A,G,F, | E,D, C,2 F,3 E, | D,2 C,2 z4 | z8 | %33
w: m'ont faict souf-|frir et seuf-|fre tous _|_ _ _ _ _||les jours,||
 z4 F,4 | G,2 A,2 B,3 A, | G,F, E,D, C, F,2 E, | D,2 C,C, D,E, F,C, | G,3 F, E,D, C,2 | %38
w: m'ont|faict souf- frir _|_ _ _ _ _ _ _|* * et seuf- * fre _|tous _ les _ jours,|
 z2 F,4 G,2 | A,2 B,3 A,G,F, |"^b""^-natural" E,D, C,2 B,,C, D,E, | F,2 B,,2 C,2 D,2 | C,4 F,4- | %43
w: m'ont faict|souf- frir _ _ _|_ _ _ et _ _ _|suf- fre tous _|les jours.|
 F,8 |] %44
w: _|

